public/svg/github-svgrepo-com.svg

<svg width="24" height="24" viewBox="0 0 24 24" fill="none" xmlns="http://www.w3.org/2000/svg">
<path d="M12 0.297015C5.37075 0.297015 0 5.67226 0 12.297C0 17.6018 3.438 22.098 8.20275 23.6843C8.805 23.7975 9.0225 23.4263 9.0225 23.1053C9.0225 22.8203 9.01575 22.0665 9.01125 21.066C5.6715 21.789 4.968 19.4528 4.968 19.4528C4.42125 18.0698 3.63225 17.6985 3.63225 17.6985C2.54625 16.9568 3.7185 16.9725 3.7185 16.9725C4.9215 17.0543 5.5545 18.2063 5.5545 18.2063C6.62475 20.0423 8.3625 19.5113 9.05025 19.2023C9.15525 18.429 9.468 17.8973 9.8085 17.601C7.1445 17.3003 4.34325 16.269 4.34325 11.6708C4.34325 10.3575 4.80825 9.28801 5.577 8.44801C5.44425 8.14726 5.03775 6.92477 5.68275 5.27176C5.68275 5.27176 6.687 4.95151 8.98275 6.50251C9.9435 6.23626 10.9635 6.10351 11.9828 6.09676C13.0028 6.10351 14.022 6.23701 14.9827 6.50251C17.265 4.95151 18.2685 5.27176 18.2685 5.27176C18.9127 6.92477 18.5062 8.14651 18.3892 8.44801C19.1505 9.28801 19.6155 10.3583 19.6155 11.6708C19.6155 16.2795 16.8105 17.2958 14.1435 17.589C14.5605 17.9483 14.9512 18.687 14.9512 19.8083C14.9512 21.4133 14.9363 22.7063 14.9363 23.097C14.9363 23.409 15.1462 23.784 15.7642 23.6633C20.5642 22.0935 23.9985 17.5935 23.9985 12.2963C23.9985 5.67151 18.6277 0.296265 11.9985 0.296265L12 0.297015Z" fill="white"/>
</svg>

<svg width="24" height="24" fill="none" xmlns="http://www.w3.org/2000/svg"><path d="M12 .297c-6.63 0-12 5.375-12 12 0 5.305 3.438 9.801 8.203 11.387.602.113.82-.258.82-.579 0-.285-.007-1.038-.012-2.039-3.34.723-4.043-1.613-4.043-1.613-.547-1.383-1.336-1.755-1.336-1.755-1.086-.741.087-.726.087-.726 1.203.082 1.836 1.234 1.836 1.234 1.07 1.836 2.808 1.305 3.495.996.105-.773.418-1.305.758-1.601-2.663-.3-5.465-1.332-5.465-5.93 0-1.313.465-2.383 1.234-3.223-.133-.3-.54-1.523.106-3.176 0 0 1.004-.32 3.3 1.23.96-.266 1.98-.398 3-.405 1.02.007 2.039.14 3 .406 2.282-1.551 3.285-1.231 3.285-1.231.645 1.653.238 2.875.121 3.176.762.84 1.227 1.91 1.227 3.223 0 4.608-2.805 5.625-5.473 5.918.417.36.808 1.098.808 2.22 0 1.604-.015 2.897-.015 3.288 0 .312.21.687.828.566A11.95 11.95 0 0 0 24 12.296c0-6.624-5.371-12-12-12L12 .297Z" fill="#fff"/></svg>
